resources/haticons/SVG/streetview.svg

<!-- Generated by IcoMoon.io -->
<svg version="1.1" xmlns="http://www.w3.org/2000/svg" width="24" height="24" viewBox="0 0 24 24">
<title>streetview</title>
<path d="M11.484 6q0 1.125 0.563 2.461t1.359 2.133l-9.797 9.797q-0.609-0.609-0.609-1.406v-13.969q0-0.797 0.609-1.406t1.406-0.609h7.219q-0.75 1.406-0.75 3zM12.984 6q0-2.063 1.477-3.539t3.539-1.477 3.539 1.477 1.477 3.539-1.477 3.539-3.539 1.477-3.539-1.477-1.477-3.539zM12.563 14.344q2.438-1.828 5.438-1.828 1.547 0 3 0.516v5.953q0 0.797-0.609 1.406t-1.406 0.609h-6.984v-5.484q0-0.703 0.563-1.172z"></path>
</svg>

<svg xmlns="http://www.w3.org/2000/svg" width="24" height="24"><path d="M11.484 6q0 1.125.563 2.461t1.359 2.133l-9.797 9.797Q3 19.782 3 18.985V5.016q0-.797.609-1.406t1.406-.609h7.219q-.75 1.406-.75 3zm1.5 0q0-2.063 1.477-3.539T18 .984t3.539 1.477T23.016 6t-1.477 3.539T18 11.016t-3.539-1.477T12.984 6zm-.421 8.344q2.438-1.828 5.438-1.828 1.547 0 3 .516v5.953q0 .797-.609 1.406T18.986 21h-6.984v-5.484q0-.703.563-1.172z"/></svg>
